X:11
T:The Howling Wind
T:aka Tam Lin
C:Davey Arthur
N:Davey is a member of The Fureys. They recorded it as Tam Lin.
R:reel
D:Snug in the Blanket,P.O'Brien,J.Gans,D.Sproule
L:1/8
Q:333
M:C|
K:Daeo
z|A,D D/D/D CDEC|B,2 DB, FDB,D|C2 EC GECD|B,CDF EDCD|
A,D D/D/D CDEC|B,2 DB, FDB,D|C2 EC GECD|FEDC A,DD:|
|:A|dAAG FDDA|dAAG FDFA|cG ~G2 EGGA|cGGA cdec|
dAAG FDFA|dAAG FDCD|B,A,B,C DCDE|FAGE FDD:|
